X:301
T: Ashokan Farewell
O:england
S:abc-users list; Brenda Holloway, 2/97
M:3/4
C: Jay Ungar
B: The Waltz Book
Q:1/4=120
K:D
V:1
|:Ac|d3 c BA|F4 EF|G3 F ED|B,2 D3 B,|A,2 D2 F2|A2 d2 f2|f3 g f2|e4 Ac|
d3 c BA|F4 EF|G3 F ED|B,2 D3 B,|A,2 D2 F2|A2 d2 f2|A2 c2 e2|d4 FG|A3 F D2|
d4 A2|B3 c d2|A F3 E2|F3 E D2|B,4 G,2|A,6|A4 FE|D2 F2 A2|=c6|B3 c d2|
A2 F2 D2|A,2 D2 F2|A2 d2 F2|E3 D C2|D4:|V:2
z2||F6|A6|B6|E6|F4D2|D4A2|d3ed2|c4A2|
D6|F6|B6|E6|D2A,2D2|F6|G4E2|D4E2|F3DA,2|=C6|
B,6|A,6|D4A2|D4B,2|A,2C2E2|A6|F4F2|E6|D6|A,6|F6|G6|F4||
de|f4ed|A4 GD|B3 EGF|D2F3E|D2F2A2|d2f2a2|a3ba2|a4FG|A3 GFE|
D4D2|E3DEF|D2F3E|D2A,2D2|F2A2B2|G4E2|D4E2|F3DA2|
f4d2|d2e2f2|d2A2B2|A3GF2|D4B,2|A,2C2BA|A4AG|F2A2^cd|
e4ed|d2B2A2|D2F2A2|d2A4|D2F2A2|G3FE2|F4||
V:3
z2|D6|F6|G6|D6|D6|F6|B4A2|G6|F6|=C6|G6|B,6|A,6|D4d2|A4G2|F6|F6|A6|
G3AB2|A2D4|A,6|F3ED2|C6|E6|A,6|=C2E2F2|G4B2|A6|F6|D6|B,6|A,4||
FG|A3 GFE|D4D2|E3 DEF|F2B,3G|F2A,2D2|F2A2B2|d3ed2|c4de|f3ed2|A4GA|B3AGF|F2B,2G2|A,6|
D4A2|A4G2|F6|A,2A2F2|DEF2F2|G2A2B2|A2D2G2|F2D2A,2|F3ED2|CDE2GF|E4A2|A,2D2E2|=C2E2F2|
G4A2|d2A2F2|D2F2A2|d4dc|B3AG2|A4||
V:4
z2|A,6|D6|D6|G,6|A,6|B,4B,2|G,4A2|A6|A,6|A6|D6|G,6|D6|A,6|B,6|A,6|D6|
F6|D6|D4C2|D3CB,2|F4D2|C6|A,2C2E2|D6|A6|D4G2|F2D2A,2|D6|B,6|E6|D4||
D2|D4E2|A,4F2|D4B,2|G,4E2|D4DC|B,4D2|D4D2|A,4A2|D4A,2|=C4C2|B,4B,2|
G,4E2| D2F2A2|A,4DC|B,3B,A,2|A,6|D6|=C6|B,6|A,4B,2|D3CB,A,|G,4B,2|
C4A,2|C2E2A,2||D6|A6|D3EF2|F2D2A,2|D4DC|B,4B,A,|A,B, CD E2|D4||
